icons/mark-pen-line.svg

<svg xmlns="http://www.w3.org/2000/svg" width="24" height="24" fill="none"><g clip-path="url(#a)"><g><path fill="#121212" d="M15.243 4.51501L8.50499 11.252L7.79799 13.373L6.75799 14.414L9.58599 17.243L10.626 16.202L12.748 15.495L19.485 8.75701L15.243 4.51501ZM21.607 8.05001C21.7945 8.23753 21.8998 8.49184 21.8998 8.75701C21.8998 9.02217 21.7945 9.27648 21.607 9.46401L13.828 17.243L11.708 17.95L10.293 19.364C10.1055 19.5515 9.85116 19.6568 9.58599 19.6568C9.32083 19.6568 9.06652 19.5515 8.87899 19.364L4.63599 15.121C4.44852 14.9335 4.34321 14.6792 4.34321 14.414C4.34321 14.1488 4.44852 13.8945 4.63599 13.707L6.04999 12.293L6.75699 10.172L14.536 2.39301C14.7235 2.20554 14.9778 2.10022 15.243 2.10022C15.5082 2.10022 15.7625 2.20554 15.95 2.39301L21.607 8.05001ZM15.243 7.34301L16.657 8.75701L11.707 13.707L10.293 12.293L15.243 7.34301ZM4.28299 16.89L7.11099 19.719L5.69699 21.133L1.45399 19.719L4.28199 16.89H4.28299Z"/></g></g><defs><clipPath id="a"><rect width="24" height="24" fill="white"/></clipPath></defs></svg>

<svg width="24" height="24" fill="none" xmlns="http://www.w3.org/2000/svg"><g clip-path="url(#a)"><path d="m15.243 4.515-6.738 6.737-.707 2.121-1.04 1.041 2.828 2.829 1.04-1.041 2.122-.707 6.737-6.738-4.242-4.242Zm6.364 3.535a1 1 0 0 1 0 1.414l-7.779 7.779-2.12.707-1.415 1.414a1 1 0 0 1-1.414 0l-4.243-4.243a1 1 0 0 1 0-1.414l1.414-1.414.707-2.121 7.779-7.779a1 1 0 0 1 1.414 0l5.657 5.657Zm-6.364-.707 1.414 1.414-4.95 4.95-1.414-1.414 4.95-4.95ZM4.283 16.89l2.828 2.829-1.414 1.414-4.243-1.414 2.828-2.829h.001Z" /></g><defs><clipPath id="a"><path fill="#fff" d="M0 0h24v24H0z"/></clipPath></defs></svg>
